!!!OTL: 1717. De Paltrock. / [Einer singt vor, Alle wiederholen den Satz.]
!!!ODT: 1840
!!!ARE: Europa, Mitteleuropa, Deutschland, Bergisches Land
!!!SCT: E1717A
!!!YEM: Copyright 1995, estate of Helmut Schaffrath.
**kern	**text
*ICvox	*
*M6/8	*
*k[b-]	*
*F:	*
!LO:TX:a:t=Mäßig geſchwind.	!
!LO:TX:a:t=Mel. aus dem Bergiſchen 1840.	!
{8f	Et
=1	=1
8cc	leit
8cc	ſek
8cc	en
4cc	Buur
8ff	en
=2	=2
4cc	Palt-
8b-	-rock
4a}	ſchnien,
{8f	Et
=3	=3
8cc	leit
8cc	ſek
8cc	en
4cc	Buur
8ff	en
=4	=4
4cc	Palt-
8b-	-rock
4a}	ſchnien,
{8cc	van
=5	=5
8cc	ſe-
8b-	-wen-
8g	-ten
8a	El-
8f	-len
8cc	van
=6	=6
8cc	ſe-
8b-	-wen-
8g	-ten
8a	El-
8f}	-len
{8f	leit
=7	=7
8g	hei
8a	en
8g	ſek
4f	ſchnien.
8f	leit
=8	=8
8g	hei
8a	en
8g	ſek
4f}	ſchnien.
==	==
!!!AGN: Spott - Lied auf betruegerische Schneider
!!!ONB: ESAC (Essen Associative Code) Database: ERK3
!!!AMT: compound duple
!!!AIN: vox
!!!EED: Helmut Schaffrath
!!!EEV: 1.0
!!!GTL: Scherz-, Spiel- und Spottlieder.
!!!URL-scan: https://rosdok.uni-rostock.de/mcrviewer/recordIdentifier/rosdok_ppn745177999/iview2/phys_0517.iview2?x=-449.8344612962892&y=299.61831968766637&scale=0.47549036216460333&rotation=0&layout=singlePageLayout
!!!ENC: Anna Maria Matuszewska
!!!EEV: 2025/08/01
*-	*-
